resources/haticons/SVG/attach_email.svg

<!-- Generated by IcoMoon.io -->
<svg version="1.1" xmlns="http://www.w3.org/2000/svg" width="24" height="24" viewBox="0 0 24 24">
<title>attach_email</title>
<path d="M21 9.984v-6q0-0.797-0.586-1.383t-1.43-0.586h-15.984q-0.844 0-1.406 0.586t-0.563 1.383l-0.047 12q0 0.844 0.586 1.43t1.43 0.586h11.016v-5.016q0-0.797 0.398-1.477t1.078-1.102 1.523-0.422h3.984zM11.016 11.016l-8.016-5.016v-2.016l8.016 5.016 7.969-5.016v2.016zM21 14.016v3.984q0 0.844-0.586 1.43t-1.43 0.586q-0.797 0-1.383-0.586t-0.586-1.43v-4.5q0-0.188 0.141-0.352t0.328-0.164q0.234 0 0.375 0.164t0.141 0.352v4.5h2.016v-4.5q0-1.031-0.75-1.758t-1.781-0.727-1.758 0.727-0.727 1.758v4.5q0 1.125 0.539 2.016t1.453 1.43 1.992 0.539q1.125 0 2.039-0.539t1.453-1.43 0.539-2.016v-3.984h-2.016z"></path>
</svg>

<svg xmlns="http://www.w3.org/2000/svg" width="24" height="24"><path d="M21 9.984v-6q0-.797-.586-1.383t-1.43-.586H3q-.844 0-1.406.586t-.563 1.383l-.047 12q0 .844.586 1.43T3 18h11.016v-5.016q0-.797.398-1.477t1.078-1.102 1.523-.422h3.984zm-9.984 1.032L3 6V3.984L11.016 9l7.969-5.016V6zm9.984 3V18q0 .844-.586 1.43t-1.43.586q-.797 0-1.383-.586T17.015 18v-4.5q0-.188.141-.352t.328-.164q.234 0 .375.164T18 13.5V18h2.016v-4.5q0-1.031-.75-1.758t-1.781-.727-1.758.727T15 13.5V18q0 1.125.539 2.016t1.453 1.43 1.992.539q1.125 0 2.039-.539t1.453-1.43.539-2.016v-3.984h-2.016z"/></svg>
